X:1
T:Porter’s Reel
C:[The Old Texas Fiddle Vol II]
L:1/8
M:2/2
I:linebreak $
K:D
V:1 treble nm="Voice" snm="Voice"
V:1
 ABc |:"D" dBAF E F2 A | BFAF E/F/EDD | dBAF EFAA | BFAF FE D2 |$ e2 (3:2:2e2 efed | c3 c- c2 cB | %7
w: |||||D * * * * *||
 A2 AA fafe | [FBe]4 d3 d- d2 |:$ f3 e2 fafd | A3 A- A2 AA | B3 B- B2 dd | g2 g2 gagf |$ %13
w: * * * * * G *||A * * * * *|* * D * *||* * D * * *|
 e2 e2 efd | c3 c- c2 cB | A2 AA fafe |] %16
w: |||
